X:1
T:Title
%%score { ( 1 4 ) | ( 2 3 ) }
L:1/8
M:3/4
K:F
V:1 treble nm="Grand Piano"
V:4 treble 
V:2 bass 
V:3 bass 
V:1
 z2 z2[Q:1/4=92] [FA][FB] | [CEA]3 [EG] [CEc][EA] | [A,CG]2 [A,CF]2 [A,CF][CF] | %3
 [B,DF]3 [FB] [FBd][Bdf] |[M:2/4] [FAc]4 |[M:1/4] [CFA][FB] |[M:3/4] [CEA]3 [EG] [CEc][EA] | %7
 [A,DG]2 [A,DF]2 [DFA][FA] | [=B,FA]3 [FG] [Ge][Fd] |[M:2/4] [Ec]4 |[M:1/4] [Ec][Ec] | %11
[M:3/4] [Ec]3 [EG] [_E^F][=EG] | _A2 =A2 cc | [^Fd]3 [FA] [Fd][Fc] |[M:2/4] [GB]4 | %15
[M:1/4] [GB][GB] |[M:3/4] [Gd]3 [Gc] [Fc][Fc] | [Ff]2 [FB]2 [FA]A | dG B2 [EA]2 |[M:2/4] [CF]4 |] %20
V:2
 z2 z2 CD | z2 B,2 C,2 | F,,C, F,2 z A, | B,,D, z D z F |[M:2/4] F,,C, F,2 |[M:1/4] z D | %6
[M:3/4] z2 B,2 C,2 | D,,A,, D,2 z C | z2 G,2 z2 |[M:2/4] [C,G,]4 |[M:1/4] [C,G,][C,G,] | %11
[M:3/4] [C,G,]3 [C,B,] [C,A,][C,B,] | [F,=B,D]2 [F,C]2 [F,A,F][F,A,F] | [D,A,]3 [D,D] [D,D][D,D] | %14
[M:2/4] [G,D]4 |[M:1/4] [G,D][F,D] |[M:3/4] [E,C]3 [E,C] [_E,A,][E,A,] | %17
 [D,B,]2 [D,B,]2 [C,C][K:treble][CF] | [B,DF][B,DF] [G,DF]2[K:bass] [C,C]2 |[M:2/4] [F,A,]4 |] %20
V:3
 x6 | C,,C, z C z C | z2 z2 F,,2 | z2 F,2 B,,2 |[M:2/4] x4 |[M:1/4] C,2 |[M:3/4] C,,C, z C z C | %7
 z2 z2 D,,2 | G,,D, z =B, [G,,G,]2 |[M:2/4] x4 |[M:1/4] x2 |[M:3/4] x6 | x6 | x6 |[M:2/4] x4 | %15
[M:1/4] x2 |[M:3/4] x6 | x5[K:treble] x | x4[K:bass] x2 |[M:2/4] x4 |] %20
V:4
 x6 | x6 | x6 | x6 |[M:2/4] z2 A,2 |[M:1/4] x2 |[M:3/4] x6 | x6 | x6 |[M:2/4] x4 |[M:1/4] x2 | %11
[M:3/4] x6 | x6 | x6 |[M:2/4] x4 |[M:1/4] x2 |[M:3/4] x6 | x6 | x6 |[M:2/4] x4 |] %20

